svgs/duotone/whiskey-glass-ice.svg

<svg xmlns="http://www.w3.org/2000/svg" viewBox="0 0 512 512"><!--! Font Awesome Pro 6.3.0 by @fontawesome - https://fontawesome.com License - https://fontawesome.com/license (Commercial License) Copyright 2023 Fonticons, Inc. --><defs><style>.fa-secondary{opacity:.4}</style></defs><path class="fa-primary" d="M79.44 160l40.07 255.2L392.7 416l39.93-256H79.44zM374.4 327.5L327.5 374.5c-12.94 12.94-34.03 12.94-46.97 0L242.2 336h-66.2c-17.67 0-32-14.33-32-32v-64c0-17.67 14.33-32 32-32h80c14.15 0 25.77 9.332 29.99 22.06c12.89-8.523 30.19-7.723 41.52 3.609l46.84 46.97C387.3 293.6 387.3 314.5 374.4 327.5z"/><path class="fa-secondary" d="M176 336h66.2l-8.492-8.516c-12.94-12.94-12.94-33.9 0-46.84l46.84-46.97c1.605-1.605 3.623-2.406 5.449-3.609C281.8 217.3 270.1 208 256 208H176c-17.67 0-32 14.33-32 32v64C144 321.7 158.3 336 176 336zM479.1 32H32.04C12.55 32-2.324 49.25 .3008 68.51L56.29 425.1C60.79 456.6 87.78 480 119.8 480h272.9c31.74 0 58.86-23.38 63.36-54.89l55.61-356.6C514.3 49.25 499.5 32 479.1 32zM392.7 416l-273.2-.8164L69.39 96h373.2L392.7 416z"/></svg>

<svg xmlns="http://www.w3.org/2000/svg" viewBox="0 0 512 512"><!-- Font Awesome Pro 6.0.0-alpha2 by @fontawesome - https://fontawesome.com License - https://fontawesome.com/license (Commercial License) --><defs><style>.fa-secondary{opacity:.4}</style></defs><path d="M176 336H242.198L233.705 327.484C220.766 314.543 220.766 293.582 233.705 280.641L280.545 233.672C282.151 232.066 284.168 231.266 285.994 230.062C281.77 217.332 270.149 208 256 208H176C158.326 208 144 222.328 144 240V304C144 321.672 158.326 336 176 336ZM479.955 32H32.045C12.549 32 -2.324 49.254 0.301 68.508L56.289 425.109C60.789 456.617 87.783 480 119.778 480H392.723C424.467 480 451.586 456.617 456.086 425.109L511.699 68.508C514.324 49.254 499.451 32 479.955 32ZM392.723 416L119.514 415.184L69.389 96H442.637L392.723 416Z" class="fa-secondary"/><path d="M79 160L119.074 415.184L392.283 416L432.215 160H79ZM373.916 327.484L327.076 374.453C314.137 387.391 293.045 387.391 280.105 374.453L241.758 336H175.561C157.887 336 143.561 321.672 143.561 304V240C143.561 222.328 157.887 208 175.561 208H255.561C269.709 208 281.33 217.332 285.555 230.062C298.441 221.539 315.742 222.34 327.076 233.672L373.916 280.641C386.855 293.582 386.855 314.543 373.916 327.484Z" class="fa-primary"/></svg>
